X: 29
T:James Lee's Favourite
M:2/4
L:1/16
Z:abc by Bruce Osborne - bosborne@kos.net
K:A
E2|ABcA EBzc|defd cezg|aecA dfzd|cABG E2zE|!
ABcA EBzc|defd cezg|aecA dfzd|cABG A2:|!
|:E2|Aceg a2a2|gefg e3g|aecA dfzd|cABG E2zE|!
Aceg a2a2|gefg e3g|aecA dfzd|cABG A2:|!
